X:81221
T:Joy to the World
R:March
C:Lowell Mason 1848 after Handel 1842
C:Arr Clive Du'Mont 2018.
O:USA
Z:Paul Hardy's Xmas Parts Tunebook 2022 (see www.paulhardy.net). Creative Commons cc by-nc-sa licenced.
%%score [1 2]
L:1/8
Q:1/4=100
M:2/4
K:D
V:1
%%voicecolor black
%%MIDI program 23 % Tango Accd.
"D" d2"^(G)" c>B |"D" A3"^(Em)" G |"D" F2"A7" E2 |"D" D3 A |"G" B3 B |"A7" c3 c |"D" d4- | d3 d ||
"D" dc BA | A>G Fd |"D" dc BA | A>G FF |"D" FF FF/G/ | A3 G/F/ |
"A7" EE EE/F/ | G3 F/E/ |"D" Dd-"G" dB |"D" A>G F"Em"G |"D" F2"A7" E2 |"D" D4 |] 
V:2
%%voicecolor maroon
%%MIDI program 41 Viola
D2 F>G | A3 B | AB c2 | d3 d | G3 d | G2 EG | F4- | F3 D || FG GF | d>e fA | FG GF | d>e fA | 
dA FA/d/ | c3 B/A/ | cA EA/d/ | c3 A/G/ | AA/A/ AF | f>d AD | A2 A2 | d4 |] 

